img/search.svg

<svg width="22" height="21" viewBox="0 0 22 21" fill="none" xmlns="http://www.w3.org/2000/svg">
<path d="M16.8407 14.6453L21.1237 18.9273L19.7087 20.3423L15.4267 16.0593C13.8334 17.3365 11.8517 18.0312 9.80969 18.0283C4.84169 18.0283 0.809692 13.9963 0.809692 9.02832C0.809692 4.06032 4.84169 0.0283203 9.80969 0.0283203C14.7777 0.0283203 18.8097 4.06032 18.8097 9.02832C18.8126 11.0703 18.1179 13.052 16.8407 14.6453ZM14.8347 13.9033C16.1038 12.5982 16.8126 10.8487 16.8097 9.02832C16.8097 5.16032 13.6767 2.02832 9.80969 2.02832C5.94169 2.02832 2.80969 5.16032 2.80969 9.02832C2.80969 12.8953 5.94169 16.0283 9.80969 16.0283C11.6301 16.0312 13.3796 15.3224 14.6847 14.0533L14.8347 13.9033Z" fill="#84889A"/>
</svg>

<svg width="22" height="21" xmlns="http://www.w3.org/2000/svg"><path d="m16.84 14.645 4.284 4.282-1.415 1.415-4.282-4.283a8.96 8.96 0 0 1-5.617 1.97c-4.968 0-9-4.033-9-9 0-4.969 4.032-9 9-9s9 4.031 9 9a8.96 8.96 0 0 1-1.97 5.616Zm-2.005-.742a6.977 6.977 0 0 0 1.975-4.875c0-3.868-3.133-7-7-7-3.868 0-7 3.132-7 7 0 3.867 3.132 7 7 7a6.977 6.977 0 0 0 4.875-1.975l.15-.15Z"/></svg>
